img/location.svg

<svg width="16" height="21" viewBox="0 0 16 21" fill="none" xmlns="http://www.w3.org/2000/svg">
<path d="M8.00008 0.292969C3.58908 0.292969 8.14446e-05 3.88197 8.14446e-05 8.28797C-0.0289186 14.733 7.69608 20.077 8.00008 20.293C8.00008 20.293 16.0291 14.733 16.0001 8.29297C16.0001 3.88197 12.4111 0.292969 8.00008 0.292969ZM8.00008 12.293C5.79008 12.293 4.00008 10.503 4.00008 8.29297C4.00008 6.08297 5.79008 4.29297 8.00008 4.29297C10.2101 4.29297 12.0001 6.08297 12.0001 8.29297C12.0001 10.503 10.2101 12.293 8.00008 12.293Z" fill="white"/>
</svg>

<svg width="16" height="21" fill="none" xmlns="http://www.w3.org/2000/svg"><path d="M8 .293c-4.41 0-8 3.589-8 7.995-.029 6.445 7.696 11.789 8 12.005 0 0 8.03-5.56 8-12 0-4.411-3.589-8-8-8Zm0 12c-2.21 0-4-1.79-4-4s1.79-4 4-4 4 1.79 4 4-1.79 4-4 4Z" fill="#fff"/></svg>
